accounts/safe.svg

<svg xmlns="http://www.w3.org/2000/svg" viewBox="0 0 16 16"><defs><style>.cls-1{fill:#010101}</style></defs><title>safe</title><g id="Layer_1" data-name="Layer 1"><path class="cls-1" d="M.368 2.237v11.557a1.932 1.932 0 0 0 1.926 1.926h11.557a1.932 1.932 0 0 0 1.926-1.926V2.237A1.932 1.932 0 0 0 13.851.31H2.294A1.932 1.932 0 0 0 .368 2.237zm1.284 0a.644.644 0 0 1 .642-.642h11.557a.644.644 0 0 1 .642.642v11.557a.644.644 0 0 1-.642.642H2.294a.644.644 0 0 1-.642-.642z"/><path class="cls-1" d="M6.147 8.015a1.926 1.926 0 1 0 1.926-1.926 1.932 1.932 0 0 0-1.926 1.926zm1.284 0a.642.642 0 1 1 .642.642.644.644 0 0 1-.642-.642z"/><path class="cls-1" d="M2.936 6.731V9.3a.642.642 0 1 0 0 1.284v1.284a1.288 1.288 0 0 0 1.284 1.284h7.7a1.288 1.288 0 0 0 1.284-1.284v-7.7a1.288 1.288 0 0 0-1.284-1.284h-7.7a1.288 1.288 0 0 0-1.284 1.279v1.284a.642.642 0 0 0 0 1.284zm1.284 0a.642.642 0 0 0 0-1.284V4.163h7.7v7.7h-7.7v-1.279a.642.642 0 1 0 0-1.284z"/></g></svg>

<svg xmlns="http://www.w3.org/2000/svg" viewBox="0 0 16 16"><defs><style>.cls-1{fill:#010101;}</style></defs><title>safe</title><g id="Layer_1" data-name="Layer 1"><path class="cls-1" d="M.368,2.237V13.794A1.932,1.932,0,0,0,2.294,15.72H13.851a1.932,1.932,0,0,0,1.926-1.926V2.237A1.932,1.932,0,0,0,13.851.31H2.294A1.932,1.932,0,0,0,.368,2.237Zm1.284,0a.644.644,0,0,1,.642-.642H13.851a.644.644,0,0,1,.642.642V13.794a.644.644,0,0,1-.642.642H2.294a.644.644,0,0,1-.642-.642Z"/><path class="cls-1" d="M6.147,8.015A1.926,1.926,0,1,0,8.073,6.089,1.932,1.932,0,0,0,6.147,8.015Zm1.284,0a.642.642,0,1,1,.642.642A.644.644,0,0,1,7.431,8.015Z"/><path class="cls-1" d="M2.936,6.731V9.3a.642.642,0,1,0,0,1.284v1.284A1.288,1.288,0,0,0,4.22,13.152h7.7a1.288,1.288,0,0,0,1.284-1.284v-7.7a1.288,1.288,0,0,0-1.284-1.284H4.22A1.288,1.288,0,0,0,2.936,4.163V5.447a.642.642,0,0,0,0,1.284Zm1.284,0h0a.642.642,0,0,0,0-1.284h0V4.163h7.7v7.7H4.22V10.584h0a.642.642,0,1,0,0-1.284h0Z"/></g></svg>
